X:1
T:Beyond the Mystic River
T:Beyond the Mystic River
T:From Stephen Collins Foster, 1851
T:John W. Holt, 1903
T:Public Domain Courtesy of the Cyber Hymnal™
C:From Stephen Collins Foster, 1851
Z:Public Domain
Z:Courtesy of the Cyber Hymnal™
%%score ( 1 2 ) ( 3 4 )
L:1/8
Q:1/4=100
M:4/4
K:Db
V:1 treble 
V:2 treble 
V:3 bass 
V:4 bass 
V:1
 [DF]4 [DE]D[DF][DE] | D2 [Dd]2 [DB] [Dd]3 | [FA]4 [DF]2 D2 | ([CE]6 (3[CE][DF][EG]) | %4
w: 1.~There is a home of|won- drous beau- ty,|Love- ly and|bright; * * *|
w: 2.~This home is one of|bliss im- mor- tal;|Hap- py we’ll|be, * * *|
w: 3.~There in that land of|song and beau- ty,|All Heav- en|rings * * *|
w: 4.~Je- sus is dai- ly|call- ing loved ones|Home one by|one; * * *|
 [DF]4 [DE]D[DF][DE] | D2 [Dd]2 [DB] [Dd]3 | [FA]2 [DF]D [DE]2 [CE]2 | D6 z2 || %8
w: Built by our bless- èd,|lov- ing Sav- ior,|Hid from our mor- tal|sight.|
w: When walk- ing thro’ the|streets of glo- ry,|From ev- ery care set|free.|
w: With prais- es to our|blest Re- deem- er,|Sav- ior, and King of|kings.|
w: We, too, shall cross the|mys- tic riv- er,|When all our work is|done.|
"^Refrain" [Ec]3 [Fd] [Ge]2 [GA]2 | [FA]3 [GB] [FA]2 [Fd]2 | [Gd]2 [GB]2 [DG]2 [GB]2 | %11
w: |||
w: |||
w: |||
w: |||
 ([FA]6 (3[CE][DF][EG]) | [DF]4 [DE]D[DF]E | D2 [Dd]2 [DB] [Dd]3 | [FA]2 [DF]D [DE]2 [CE]2 | %15
w: ||||
w: ||||
w: ||||
w: ||||
 D6 z2 |] %16
w: |
w: |
w: |
w: |
V:2
 x5 D x2 | D2 x6 | x6 D2 | x8 | x5 D x2 | D2 x6 | x3 D x4 | D6 x2 || x8 | x8 | x8 | x8 | x5 DE x | %13
 D2 x6 | x3 D x4 | D6 x2 |] %16
V:3
 [D,A,]4 [D,G,][D,F,][D,A,][D,G,] | [D,F,]2 [F,A,]2 G, [G,B,]3 | [D,D]4 [D,A,]2 [B,,=G,]2 | %3
w: |* * “Oh, *||
 [A,,A,]6 z2 | [D,A,]4 [D,G,][D,F,][D,A,][D,G,] | [D,F,]2 [F,A,]2 G, [G,B,]3 | %6
w: ||* * my *|
 [A,D]2 [A,,A,][A,,F,] [A,,G,]2 [A,,G,]2 | [D,F,]6 z2 || A,3 A, A,2 [A,,C]2 | %9
w: ||heart is fond- ly|
 [D,D]3 [D,D] [D,D]2 [D,A,]2 | [G,B,]2 [G,D]2 [G,B,]2 [G,D]2 | [D,D]6 z2 | %12
w: yearn- ing, Yon- der|courts to roam”; Glad-|ly|
 [D,A,]4 [D,G,][D,F,][D,A,][D,G,] | [D,F,]2 [F,A,]2 G, [G,B,]3 | %14
w: each mo- ment draws me|near- er To my|
 [A,D]2 [A,,A,][A,,F,] [A,,G,]2 [A,,G,]2 | [D,F,]6 z2 |] %16
w: e- ter- nal home. *||
V:4
 x8 | x4 G, x3 | x8 | x8 | x8 | x4 G, x3 | x8 | x8 || A,3 A, A,2 x2 | x8 | x8 | x8 | x8 | %13
 x4 G, x3 | x8 | x8 |] %16

